public/images/icons/phone.svg

<svg width="16" height="16" viewBox="0 0 16 16" fill="none" xmlns="http://www.w3.org/2000/svg"><path d="M14.75 9.88438L11.439 8.40008L11.4263 8.39445C11.2111 8.30167 10.9761 8.26432 10.7427 8.28581C10.5093 8.30731 10.285 8.38697 10.0904 8.5175C10.0631 8.53577 10.0368 8.55548 10.0116 8.57656L8.44297 9.9125C7.52891 9.4168 6.58461 8.48024 6.08821 7.57742L7.42836 5.98414C7.44991 5.95843 7.46987 5.93142 7.48813 5.90328C7.61524 5.70933 7.69242 5.48695 7.71278 5.25595C7.73314 5.02495 7.69607 4.7925 7.60485 4.5793C7.60268 4.57521 7.6008 4.57098 7.59922 4.56664L6.11563 1.25C5.99385 0.972634 5.78601 0.741843 5.52287 0.591783C5.25972 0.441723 4.95526 0.380368 4.65454 0.416797C3.63386 0.550878 2.69689 1.05191 2.01862 1.82632C1.34035 2.60073 0.96716 3.59556 0.968755 4.625C0.968755 10.3632 5.6368 15.0312 11.375 15.0312C12.4045 15.0328 13.3993 14.6597 14.1737 13.9814C14.9481 13.3031 15.4491 12.3661 15.5832 11.3455C15.6196 11.0447 15.5583 10.7403 15.4082 10.4771C15.2582 10.214 15.0274 10.0062 14.75 9.88438ZM11.375 13.3438C9.06351 13.341 6.84748 12.4215 5.213 10.787C3.57852 9.15253 2.65905 6.9365 2.65626 4.625C2.65464 4.04246 2.85241 3.4769 3.2167 3.02231C3.58099 2.56772 4.08986 2.25146 4.65876 2.12609L5.98204 5.07922L4.63485 6.68375C4.61307 6.7097 4.59288 6.73694 4.57438 6.76531C4.44159 6.9682 4.36353 7.20198 4.34776 7.44394C4.33199 7.68591 4.37905 7.92784 4.48438 8.14625C5.14672 9.50188 6.51149 10.8575 7.88118 11.5212C8.10104 11.6255 8.34419 11.6709 8.58686 11.653C8.82953 11.6351 9.0634 11.5546 9.26563 11.4193C9.29282 11.401 9.31888 11.381 9.34368 11.3595L10.9208 10.0187L13.8739 11.3413C13.7485 11.9101 13.4323 12.419 12.9777 12.7833C12.5231 13.1476 11.9575 13.3454 11.375 13.3438Z" fill="white"/></svg>

<svg xmlns="http://www.w3.org/2000/svg" width="16" height="16" fill="none"><path fill="#fff" d="M14.75 9.884 11.439 8.4l-.013-.006a1.4 1.4 0 0 0-1.414.183L8.443 9.912c-.914-.495-1.858-1.432-2.355-2.335l1.34-1.593a1.406 1.406 0 0 0 .17-1.418L6.117 1.25A1.41 1.41 0 0 0 4.655.417 4.24 4.24 0 0 0 .969 4.625c0 5.738 4.668 10.406 10.406 10.406a4.24 4.24 0 0 0 4.208-3.686 1.41 1.41 0 0 0-.833-1.46m-3.375 3.46a8.73 8.73 0 0 1-8.719-8.719A2.55 2.55 0 0 1 4.66 2.126L5.982 5.08 4.635 6.684a1.406 1.406 0 0 0-.15 1.463c.662 1.355 2.026 2.71 3.396 3.374a1.4 1.4 0 0 0 1.385-.102 1 1 0 0 0 .078-.06l1.577-1.34 2.953 1.322a2.55 2.55 0 0 1-2.499 2.003"/></svg>
